packages/dnb-ui-lib/assets/icons/shopping_cart_medium.svg

<svg width="24" height="24" viewBox="0 0 24 24" fill="none" xmlns="http://www.w3.org/2000/svg">
<path d="M16 21C15.8022 21 15.6089 21.0586 15.4444 21.1685C15.28 21.2784 15.1518 21.4346 15.0761 21.6173C15.0004 21.8 14.9806 22.0011 15.0192 22.1951C15.0578 22.3891 15.153 22.5673 15.2929 22.7071C15.4327 22.847 15.6109 22.9422 15.8049 22.9808C15.9989 23.0194 16.2 22.9996 16.3827 22.9239C16.5654 22.8482 16.7216 22.72 16.8315 22.5556C16.9414 22.3911 17 22.1978 17 22C17 21.7348 16.8946 21.4804 16.7071 21.2929C16.5196 21.1054 16.2652 21 16 21Z" fill="black"/>
<path d="M9 21C8.80222 21 8.60888 21.0586 8.44443 21.1685C8.27998 21.2784 8.15181 21.4346 8.07612 21.6173C8.00043 21.8 7.98063 22.0011 8.01922 22.1951C8.0578 22.3891 8.15304 22.5673 8.29289 22.7071C8.43274 22.847 8.61093 22.9422 8.80491 22.9808C8.99889 23.0194 9.19996 22.9996 9.38268 22.9239C9.56541 22.8482 9.72159 22.72 9.83147 22.5556C9.94135 22.3911 10 22.1978 10 22C10 21.7348 9.89464 21.4804 9.70711 21.2929C9.51957 21.1054 9.26522 21 9 21Z" fill="black"/>
<path d="M18 19.1249H8.079C7.72467 19.125 7.38176 18.9996 7.11105 18.7709C6.84034 18.5423 6.65929 18.2253 6.6 17.8759L3.963 2.37593C3.9035 2.02678 3.72236 1.70994 3.45167 1.48153C3.18097 1.25311 2.83819 1.12785 2.484 1.12793H1.5M6.04701 14.6249H18.118C18.7869 14.6249 19.4366 14.4012 19.9639 13.9896C20.4911 13.5779 20.8657 13.0019 21.028 12.3529L22.478 6.55294C22.5057 6.44233 22.5078 6.32687 22.4841 6.21533C22.4604 6.10379 22.4117 5.99911 22.3415 5.90926C22.2713 5.8194 22.1815 5.74673 22.0791 5.69677C21.9766 5.64681 21.864 5.62088 21.75 5.62094H4.51601M6.745 5.62494L9.745 2.62494C10.0263 2.34373 10.4078 2.18576 10.8055 2.18576C11.2032 2.18576 11.5847 2.34373 11.866 2.62494L14.866 5.62494M12.739 3.49295L16.259 2.45995C16.6406 2.34814 17.0511 2.39246 17.4 2.58317C17.749 2.77388 18.008 3.09537 18.12 3.47695L18.75 5.62495" stroke="black" stroke-width="1.5" stroke-linecap="round" stroke-linejoin="round"/>
</svg>

<svg width="24" height="24" viewBox="0 0 24 24" fill="none" xmlns="http://www.w3.org/2000/svg"><path d="M16 21a1 1 0 100 2 1 1 0 000-2zM9 21a1 1 0 100 2 1 1 0 000-2z" fill="#000"/><path d="M18 19.125H8.079a1.5 1.5 0 01-1.479-1.25l-2.637-15.5a1.5 1.5 0 00-1.479-1.247H1.5m4.547 13.497h12.071a3 3 0 002.91-2.272l1.45-5.8a.749.749 0 00-.728-.932H4.516m2.229.004l3-3a1.5 1.5 0 012.121 0l3 3m-2.127-2.132l3.52-1.033a1.5 1.5 0 011.861 1.017l.63 2.148" stroke="#000" stroke-width="1.5" stroke-linecap="round" stroke-linejoin="round"/></svg>
